svgs/light/gifts.svg

<svg xmlns="http://www.w3.org/2000/svg" viewBox="0 0 640 512"><!-- Font Awesome Pro 6.0.0-alpha2 by @fontawesome - https://fontawesome.com License - https://fontawesome.com/license (Commercial License) --><path d="M582.729 224.678C588.484 215.078 592 203.984 592 192C592 156.703 563.281 128 528 128C488.596 128 453.779 170.029 432 204.068C410.221 170.029 375.404 128 336 128C300.719 128 272 156.703 272 192C272 203.984 275.516 215.078 281.271 224.678C249.133 228.084 224 254.959 224 288V448C224 483.346 252.654 512 288 512H576C611.348 512 640 483.346 640 448V288C640 254.959 614.867 228.084 582.729 224.678ZM336 160C355.227 160 382.172 185.018 406.656 224H336C318.344 224 304 209.641 304 192S318.344 160 336 160ZM416 480H288C270.355 480 256 465.645 256 448V384H416V480ZM416 352H256V288C256 270.355 270.355 256 288 256H416V352ZM528 160C545.656 160 560 174.359 560 192S545.656 224 528 224H457.346C481.83 185.018 508.773 160 528 160ZM608 448C608 465.645 593.645 480 576 480H448V384H608V448ZM608 352H448V256H576C593.645 256 608 270.355 608 288V352ZM176 480H64C46.328 480 32 465.674 32 448V160C32 142.326 46.328 128 64 128H240C248.838 128 256 120.836 256 112S248.838 96 240 96H215.77L264.469 65.562C271.969 60.891 274.25 51.016 269.563 43.516C264.875 36 254.969 33.766 247.531 38.438L199.744 68.295L222.312 23.156C226.25 15.25 223.062 5.641 215.156 1.688C207.281 -2.219 197.656 0.953 193.688 8.844L160 76.219L126.312 8.844C122.344 0.922 112.75 -2.25 104.844 1.688C96.938 5.641 93.75 15.25 97.688 23.156L120.256 68.295L72.469 38.438C65.062 33.766 55.125 36 50.438 43.516C45.75 51.016 48.031 60.891 55.531 65.562L104.23 96H64C28.654 96 0 124.654 0 160V448C0 483.346 28.654 512 64 512H176C184.838 512 192 504.836 192 496S184.838 480 176 480Z"/></svg>

<svg xmlns="http://www.w3.org/2000/svg" viewBox="0 0 640 512"><!--! Font Awesome Pro 6.0.0-alpha3 by @fontawesome - https://fontawesome.com License - https://fontawesome.com/license (Commercial License) --><path d="M582.7 224.7C588.5 215.1 592 203.1 592 192c0-35.3-28.72-64-64-64c-39.4 0-74.22 42.03-96 76.07C410.2 170 375.4 128 336 128c-35.28 0-64 28.7-64 64c0 11.98 3.516 23.08 9.271 32.68C249.1 228.1 224 254.1 224 287.1v160C224 483.3 252.7 512 288 512h288c35.35 0 64-28.66 64-64V287.1C640 254.1 614.9 228.1 582.7 224.7zM336 160c19.23 0 46.17 25.02 70.66 64l-70.67 .0052C318.3 224 304 209.6 304 192S318.3 160 336 160zM416 480H288c-17.64 0-32-14.36-32-32v-64l160 .0039V480zM416 352L256 352V288c0-17.64 14.36-32 32-32h128V352zM528 160c17.66 0 32 14.36 32 32s-14.33 32.01-31.99 32.01L457.3 224C481.8 185 508.8 160 528 160zM608 448c0 17.64-14.36 32-32 32h-128v-95.1L608 384V448zM608 352l-160 .0039V256h128c17.64 0 32 14.36 32 32V352zM176 480H64c-17.67 0-32-14.33-32-32V160c0-17.67 14.33-32 32-32h176C248.8 128 256 120.8 256 112S248.8 96 240 96H215.8l48.7-30.44c7.5-4.672 9.781-14.55 5.094-22.05C264.9 36 254.1 33.77 247.5 38.44L199.7 68.29l22.57-45.14c3.938-7.906 .75-17.52-7.156-21.47c-7.875-3.906-17.5-.7344-21.47 7.156L160 76.22L126.3 8.844C122.3 .9219 112.8-2.25 104.8 1.688C96.94 5.641 93.75 15.25 97.69 23.16l22.57 45.14L72.47 38.44C65.06 33.77 55.13 36 50.44 43.52C45.75 51.02 48.03 60.89 55.53 65.56L104.2 96H64C28.65 96 0 124.7 0 160v288c0 35.35 28.65 64 64 64h112C184.8 512 192 504.8 192 496S184.8 480 176 480z"/></svg>
